Sources/FrostedUI/Resources/Icons.xcassets/rectangleStack16.imageset/rectangle-stack-16.svg

<svg width="16" height="16" viewBox="0 0 16 16" fill="none" xmlns="http://www.w3.org/2000/svg" data-fui-icon="true">
  <path
    d="M13.5 11.2725C14.7425 11.2725 15.7498 12.28 15.75 13.5225V13.8408C15.7499 14.255 15.4142 14.5908 15 14.5908C14.5858 14.5908 14.2501 14.255 14.25 13.8408V13.5225C14.2498 13.1084 13.9141 12.7725 13.5 12.7725H2.5C2.08591 12.7725 1.7502 13.1084 1.75 13.5225V13.8408C1.7499 14.255 1.41415 14.5908 1 14.5908C0.585846 14.5908 0.250096 14.255 0.25 13.8408V13.5225C0.250198 12.28 1.25748 11.2725 2.5 11.2725H13.5ZM13.5 2C14.7426 2 15.75 3.00736 15.75 4.25V6.97754C15.7499 8.22006 14.7426 9.22754 13.5 9.22754H2.5C1.25745 9.22754 0.250144 8.22006 0.25 6.97754V4.25C0.25 3.00736 1.25736 2 2.5 2H13.5ZM2.5 3.5C2.08579 3.5 1.75 3.83579 1.75 4.25V6.97754C1.75014 7.39163 2.08588 7.72754 2.5 7.72754H13.5C13.9141 7.72754 14.2499 7.39163 14.25 6.97754V4.25C14.25 3.83579 13.9142 3.5 13.5 3.5H2.5Z"
    fill="currentColor"
  />
</svg>

<svg xmlns="http://www.w3.org/2000/svg" width="16" height="16" fill="none" data-fui-icon="true" viewBox="0 0 16 16"><path fill="currentColor" d="M13.5 11.273a2.25 2.25 0 0 1 2.25 2.25v.318a.75.75 0 0 1-1.5 0v-.318a.75.75 0 0 0-.75-.75h-11a.75.75 0 0 0-.75.75v.318a.75.75 0 0 1-1.5 0v-.318a2.25 2.25 0 0 1 2.25-2.25zM13.5 2a2.25 2.25 0 0 1 2.25 2.25v2.728a2.25 2.25 0 0 1-2.25 2.25h-11a2.25 2.25 0 0 1-2.25-2.25V4.25A2.25 2.25 0 0 1 2.5 2zm-11 1.5a.75.75 0 0 0-.75.75v2.728c0 .414.336.75.75.75h11a.75.75 0 0 0 .75-.75V4.25a.75.75 0 0 0-.75-.75z"/></svg>
